X: 1
T:The Big Ship  "Arranged by Terry Tully"
M:C
L:1/8
Q:80
C:Traditional Irish
S:Reel
K:HP
|: f|
{g}Bf{e}fd{g}Bc{gde}dB|
{g}cA{gAGAG}A2{g}eA{gcd}cA|
{g}Bf{e}fd{g}Bc{gde}dB|  !
{gcd}cB{G}Ac{gBd}B2{G}B:| [|
c|
d{e}d{c}de{gde}dcBd|
{gcecG}c2{g}cd{gcd}cB{G}Ac|  !
d{e}d{c}de{gde}dcBd|
{gcd}cB{G}Ac{gBd}B2{G}Bcd{e}d{c}de{gde}dcBd|
{gcecG}c2af{g}ec{g}Ac|  !
d{e}d{c}df{gef}ec{g}Aa|
fe{g}dc{gBd}B2{G}B|]
